X:4179
T:Michael Kennedy's Reel
O:england
R:reel
D:Kevin Burke: Up Close
M:C|
K:Ador
a2ag edcd|eaag (3efe dg|eaab agef|gedB GABd:|
|:eAAB cBAa|aAAG ABcd|eAAB cBAg|gedB GABd:|


